packages/foundations/assets/icons/functional/images/medical/mask_32.svg

<svg width="32" height="32" viewBox="0 0 32 32" fill="none" xmlns="http://www.w3.org/2000/svg">
<g clip-path="url(#clip0_186_211)">
<path fill-rule="evenodd" clip-rule="evenodd" d="M2 20.025C2 19.4727 2.44772 19.0245 3 19.025L4.43302 19.0263C5.69516 17.6647 10.815 15.022 16.01 15.022C21.2043 15.022 26.3088 17.6658 27.5705 19.026L29 19.025C29.5523 19.0246 30 19.4727 30 20.025C30 20.5773 29.5523 21.0245 29 21.025L27.6898 21.0261C25.8019 25.7988 21.1877 28.9787 16.008 29C10.8251 28.9805 6.20666 25.8008 4.31496 21.0261L3 21.025C2.44772 21.0245 2 20.5773 2 20.025ZM4.008 14.992C4.008 8.369 9.377 3 16 3C22.623 3 27.992 8.369 27.992 14.992C27.992 15.5536 27.5431 15.992 26.992 15.992C26.4397 15.992 25.992 15.5443 25.992 14.992C25.992 9.4736 21.5184 5 16 5C10.4816 5 6.008 9.4736 6.008 14.992C6.008 15.5443 5.56028 15.992 5.008 15.992C4.45571 15.992 4.008 15.5443 4.008 14.992ZM6.132 20.156C7.67197 24.2722 11.6052 27.0001 16 27.0001C20.3948 27.0001 24.328 24.2722 25.868 20.156C22.9546 18.1776 19.529 17.0884 16.008 17.021C12.4822 17.0895 9.0518 18.1784 6.132 20.156ZM11.708 21.3065C11.2213 21.1568 11.0113 20.7739 11.0113 20.3855C11.0113 19.869 11.3827 19.3427 11.9681 19.3427C12.0711 19.3427 12.1806 19.359 12.296 19.3945C13.5039 19.764 14.7532 19.9487 16.0025 19.9487C17.2518 19.9487 18.5011 19.764 19.709 19.3945C19.8216 19.3599 19.929 19.344 20.0303 19.344C20.6154 19.344 20.9958 19.8743 20.9958 20.3929C20.9958 20.7777 20.7865 21.1559 20.296 21.3065C18.9069 21.7347 17.4616 21.9528 16.008 21.9535C14.5504 21.9531 13.1011 21.7351 11.708 21.3065ZM13.853 25.241C13.2842 25.1469 13.0251 24.7135 13.0251 24.2753C13.0251 23.7258 13.4324 23.1688 14.147 23.263C14.7615 23.3532 15.381 23.3984 16.0005 23.3984C16.62 23.3984 17.2395 23.3532 17.854 23.263C18.5853 23.1394 19.0023 23.7079 19.0023 24.2685C19.0023 24.7176 18.7348 25.1616 18.147 25.241C17.4385 25.3465 16.7233 25.3997 16.007 25.4C15.2861 25.4 14.5661 25.3469 13.853 25.241Z" fill="#1A1C1F"/>
</g>
<defs>
<clipPath id="clip0_186_211">
<rect width="32" height="32" fill="white"/>
</clipPath>
</defs>
</svg>

<svg xmlns="http://www.w3.org/2000/svg" width="32" height="32" fill="none"><g clip-path="url(#a)"><path fill="#1A1C1F" fill-rule="evenodd" d="M2 20.025a1 1 0 0 1 1-1l1.433.001c1.262-1.361 6.382-4.004 11.577-4.004 5.194 0 10.299 2.644 11.56 4.004l1.43-.001a1 1 0 1 1 0 2l-1.31.001A12.62 12.62 0 0 1 16.008 29a12.63 12.63 0 0 1-11.693-7.974L3 21.025a1 1 0 0 1-1-1m2.008-5.033C4.008 8.369 9.377 3 16 3s11.992 5.369 11.992 11.992a1 1 0 1 1-2 0C25.992 9.474 21.518 5 16 5s-9.992 4.474-9.992 9.992a1 1 0 1 1-2 0m2.124 5.164a10.536 10.536 0 0 0 19.736 0 18.17 18.17 0 0 0-9.86-3.135 18.24 18.24 0 0 0-9.876 3.135m5.576 1.15c-.487-.15-.697-.532-.697-.92 0-.517.372-1.043.957-1.043q.155-.001.328.052a12.67 12.67 0 0 0 7.413 0q.17-.052.321-.051c.585 0 .966.53.966 1.049 0 .385-.21.763-.7.913a14.6 14.6 0 0 1-8.588 0m2.145 3.935c-.569-.094-.828-.527-.828-.966 0-.55.407-1.106 1.122-1.012a12.8 12.8 0 0 0 3.707 0c.731-.124 1.148.445 1.148 1.005 0 .45-.267.894-.855.973a14.6 14.6 0 0 1-4.294 0" clip-rule="evenodd"/></g><defs><clipPath id="a"><path fill="#fff" d="M0 0h32v32H0z"/></clipPath></defs></svg>
